src/assets/img/common/session.svg

<?xml version="1.0" encoding="UTF-8"?>
<svg xmlns="http://www.w3.org/2000/svg" xmlns:xlink="http://www.w3.org/1999/xlink" width="155px" height="21px" viewBox="0 0 156 21" version="1.1">
<g id="surface1">
<path style=" stroke:none;fill-rule:nonzero;fill:rgb(23.137255%,14.117647%,10.196078%);fill-opacity:1;" d="M 8.132812 9.253906 L 10.746094 2.519531 C 10.800781 2.375 10.964844 2.300781 11.109375 2.359375 L 13.535156 3.304688 C 13.679688 3.363281 13.75 3.527344 13.695312 3.671875 L 11.085938 10.410156 C 11.027344 10.554688 10.863281 10.625 10.71875 10.570312 L 8.292969 9.621094 C 8.148438 9.5625 8.078125 9.402344 8.132812 9.253906 Z M 8.132812 9.253906 "/>
<path style=" stroke:none;fill-rule:nonzero;fill:rgb(23.137255%,14.117647%,10.196078%);fill-opacity:1;" d="M 7.429688 11.109375 L 10.382812 12.257812 L 8.042969 14.683594 C 7.910156 14.792969 7.710938 14.761719 7.597656 14.632812 C 7.570312 14.589844 7.539062 14.53125 7.539062 14.480469 Z M 7.429688 11.109375 "/>
<path style="fill:none;stroke-width:1.5;stroke-linecap:round;stroke-linejoin:miter;stroke:rgb(23.137255%,14.117647%,10.196078%);stroke-opacity:1;stroke-miterlimit:10;" d="M 13.578583 9.999121 L 16.699248 13.999757 C 17.010149 14.398273 16.940196 14.978636 16.539912 15.288163 C 16.4583 15.350068 16.380575 15.400366 16.291191 15.431319 L 7.531567 18.631054 C 7.139055 18.770341 6.711567 18.631054 6.470619 18.298312 L 0.921043 10.451804 C 0.629574 10.041681 0.718958 9.469056 1.119242 9.178874 C 1.189195 9.128576 1.270806 9.089885 1.348531 9.058933 L 6.159718 7.279153 " transform="matrix(1.005144,0,0,1.009605,0,0.00249262)"/>
<path style=" stroke:none;fill-rule:nonzero;fill:rgb(92.941176%,42.352941%,0%);fill-opacity:1;" d="M 34.839844 7.847656 L 30.445312 7.847656 L 30.445312 6.496094 L 34.839844 6.496094 Z M 34.566406 16.296875 L 32.164062 16.296875 L 32.164062 16.8125 L 30.695312 16.8125 L 30.695312 12.148438 L 34.566406 12.148438 L 34.566406 16.308594 Z M 34.535156 5.878906 L 30.878906 5.878906 L 30.878906 4.675781 L 34.535156 4.675781 Z M 34.464844 9.644531 L 30.898438 9.644531 L 30.898438 8.472656 L 34.464844 8.472656 Z M 34.464844 11.5 L 30.898438 11.5 L 30.898438 10.3125 L 34.464844 10.3125 Z M 33.109375 15.074219 L 33.109375 13.359375 L 32.203125 13.359375 L 32.203125 15.074219 Z M 43.300781 14.582031 L 42.738281 14.582031 L 42.738281 15.539062 C 42.738281 15.875 42.597656 16.167969 42.328125 16.398438 C 42.054688 16.628906 41.742188 16.75 41.390625 16.75 L 39.742188 16.75 L 39.542969 15.277344 L 40.578125 15.277344 C 40.828125 15.277344 40.960938 15.167969 40.960938 14.933594 L 40.960938 14.582031 L 37.390625 14.582031 L 37.390625 16.832031 L 35.5625 16.832031 L 35.5625 14.582031 L 34.96875 14.582031 L 34.96875 13.460938 L 35.5625 13.460938 L 35.5625 10.167969 L 38.355469 10.167969 L 38.355469 9.605469 L 35.007812 9.605469 L 35.007812 8.523438 L 36.628906 8.523438 L 36.628906 7.867188 L 35.5 7.867188 L 35.5 6.867188 L 36.628906 6.867188 L 36.628906 6.242188 L 35.25 6.242188 L 35.25 5.191406 L 36.628906 5.191406 L 36.628906 4.464844 L 38.398438 4.464844 L 38.398438 5.191406 L 39.925781 5.191406 L 39.925781 4.464844 L 41.695312 4.464844 L 41.695312 5.191406 L 43.050781 5.191406 L 43.050781 6.242188 L 41.695312 6.242188 L 41.695312 6.867188 L 42.699219 6.867188 L 42.699219 7.867188 L 41.695312 7.867188 L 41.695312 8.523438 L 43.210938 8.523438 L 43.210938 9.605469 L 39.945312 9.605469 L 39.945312 10.167969 L 42.738281 10.167969 L 42.738281 13.460938 L 43.300781 13.460938 Z M 38.386719 11.179688 L 37.382812 11.179688 L 37.382812 11.84375 L 38.386719 11.84375 Z M 37.382812 13.460938 L 38.386719 13.460938 L 38.386719 12.742188 L 37.382812 12.742188 Z M 38.386719 6.242188 L 38.386719 6.867188 L 39.914062 6.867188 L 39.914062 6.242188 Z M 38.386719 8.523438 L 39.914062 8.523438 L 39.914062 7.867188 L 38.386719 7.867188 Z M 40.949219 11.84375 L 40.949219 11.179688 L 39.894531 11.179688 L 39.894531 11.84375 Z M 39.894531 13.46875 L 40.949219 13.46875 L 40.949219 12.753906 L 39.894531 12.753906 Z M 39.894531 13.46875 "/>
<path style=" stroke:none;fill-rule:nonzero;fill:rgb(92.941176%,42.352941%,0%);fill-opacity:1;" d="M 51.300781 8.351562 C 51.070312 8.503906 50.527344 8.746094 49.664062 9.046875 C 48.800781 9.351562 48.066406 9.582031 47.464844 9.726562 L 47.050781 8.402344 C 47.632812 8.269531 48.347656 8.078125 49.171875 7.816406 C 49.996094 7.554688 50.628906 7.320312 51.0625 7.121094 Z M 50.226562 6.90625 L 49.101562 7.796875 L 47.652344 6.433594 L 48.226562 6.007812 L 47.222656 6.007812 L 47.222656 4.808594 L 53.070312 4.808594 L 53.070312 9.21875 C 53.070312 9.5625 52.929688 9.835938 52.648438 10.046875 C 52.367188 10.261719 52.054688 10.351562 51.714844 10.351562 L 50.207031 10.351562 L 49.976562 8.96875 L 51.113281 8.96875 C 51.324219 8.96875 51.421875 8.875 51.421875 8.683594 L 51.421875 6.007812 L 49.222656 6.007812 L 50.21875 6.898438 Z M 56.832031 16.105469 L 49.914062 16.105469 L 49.914062 16.53125 L 48.035156 16.53125 L 48.035156 10.824219 L 52.417969 10.824219 C 52.667969 10.351562 52.839844 9.996094 52.941406 9.765625 L 54.691406 10.039062 L 54.207031 10.824219 L 58.730469 10.824219 L 58.730469 16.53125 L 56.832031 16.53125 Z M 56.832031 12.855469 L 56.832031 12.066406 L 49.914062 12.066406 L 49.914062 12.855469 Z M 49.914062 14.78125 L 56.832031 14.78125 L 56.832031 13.964844 L 49.914062 13.964844 Z M 57.613281 8.363281 C 57.382812 8.511719 56.839844 8.753906 55.976562 9.058594 C 55.113281 9.363281 54.378906 9.59375 53.773438 9.734375 L 53.375 8.414062 C 53.9375 8.292969 54.640625 8.097656 55.484375 7.835938 C 56.328125 7.574219 56.953125 7.332031 57.382812 7.128906 L 57.625 8.363281 Z M 56.550781 6.90625 L 55.421875 7.796875 L 53.976562 6.433594 L 54.550781 6.007812 L 53.472656 6.007812 L 53.472656 4.808594 L 59.472656 4.808594 L 59.472656 9.160156 C 59.472656 9.523438 59.34375 9.804688 59.074219 10.019531 C 58.800781 10.230469 58.488281 10.339844 58.117188 10.339844 L 56.53125 10.339844 L 56.296875 8.957031 L 57.464844 8.957031 C 57.675781 8.957031 57.777344 8.867188 57.777344 8.675781 L 57.777344 6 L 55.554688 6 L 56.550781 6.886719 Z M 56.550781 6.90625 "/>
<path style=" stroke:none;fill-rule:nonzero;fill:rgb(92.941176%,42.352941%,0%);fill-opacity:1;" d="M 73.898438 10.066406 L 66.269531 10.066406 L 66.269531 9.28125 C 65.425781 9.816406 64.652344 10.21875 63.957031 10.492188 L 63.050781 9.019531 C 64.039062 8.625 65.164062 7.957031 66.421875 7.019531 C 67.675781 6.082031 68.539062 5.210938 69.003906 4.414062 L 70.863281 4.414062 C 72.351562 6.292969 74.390625 7.757812 76.984375 8.796875 L 75.980469 10.421875 C 75.324219 10.160156 74.632812 9.804688 73.886719 9.363281 L 73.886719 10.066406 Z M 73.617188 16.167969 C 71.445312 16.410156 68.359375 16.628906 64.390625 16.832031 L 64.097656 15.136719 L 65.886719 15.074219 C 66.371094 14.339844 66.820312 13.570312 67.246094 12.773438 L 63.925781 12.773438 L 63.925781 11.117188 L 76.140625 11.117188 L 76.140625 12.773438 L 73.304688 12.773438 C 74.472656 13.964844 75.425781 15.097656 76.160156 16.1875 L 74.109375 16.964844 C 74.007812 16.75 73.839844 16.488281 73.617188 16.167969 Z M 67.464844 8.464844 L 72.5625 8.464844 C 71.507812 7.6875 70.660156 6.90625 70.007812 6.101562 C 69.394531 6.867188 68.550781 7.65625 67.457031 8.464844 Z M 68.148438 14.976562 C 69.957031 14.875 71.394531 14.78125 72.460938 14.683594 C 72.007812 14.125 71.605469 13.664062 71.253906 13.277344 L 72.167969 12.785156 L 69.445312 12.785156 C 69.042969 13.53125 68.609375 14.269531 68.140625 14.976562 Z M 68.148438 14.976562 "/>
<path style=" stroke:none;fill-rule:nonzero;fill:rgb(92.941176%,42.352941%,0%);fill-opacity:1;" d="M 85.234375 16.175781 L 85.699219 14.570312 C 86.363281 14.882812 86.984375 15.035156 87.589844 15.035156 C 88.25 15.035156 88.773438 14.875 89.167969 14.5625 C 89.558594 14.246094 89.75 13.792969 89.75 13.21875 C 89.75 12.542969 89.46875 12.015625 88.914062 11.671875 C 88.363281 11.320312 87.589844 11.148438 86.601562 11.148438 C 85.988281 11.148438 85.347656 11.210938 84.664062 11.332031 L 84.664062 15.136719 C 84.664062 15.683594 84.441406 16.105469 84 16.410156 C 83.558594 16.710938 83.003906 16.871094 82.339844 16.871094 C 81.4375 16.871094 80.671875 16.609375 80.039062 16.074219 C 79.40625 15.550781 79.09375 14.863281 79.09375 14.027344 C 79.09375 13.1875 79.417969 12.449219 80.050781 11.785156 C 80.691406 11.117188 81.558594 10.582031 82.664062 10.179688 L 82.664062 8.441406 L 79.425781 8.441406 L 79.425781 6.816406 L 82.664062 6.816406 L 82.664062 4.625 L 84.664062 4.625 L 84.664062 6.816406 L 88.011719 6.816406 L 88.011719 8.441406 L 84.664062 8.441406 L 84.664062 9.675781 C 85.296875 9.574219 85.929688 9.523438 86.582031 9.523438 C 88.121094 9.523438 89.367188 9.835938 90.332031 10.460938 C 91.296875 11.089844 91.769531 11.988281 91.769531 13.148438 C 91.769531 14.308594 91.40625 15.167969 90.683594 15.824219 C 89.960938 16.480469 88.996094 16.800781 87.800781 16.800781 C 86.84375 16.800781 85.988281 16.589844 85.226562 16.167969 Z M 82.671875 11.945312 C 81.488281 12.511719 80.902344 13.1875 80.902344 13.976562 C 80.902344 14.308594 81.042969 14.582031 81.316406 14.804688 C 81.585938 15.027344 81.910156 15.136719 82.269531 15.136719 C 82.542969 15.136719 82.671875 15.003906 82.671875 14.742188 Z M 92.324219 8.269531 L 90.84375 9.433594 C 90.511719 9.019531 89.921875 8.402344 89.066406 7.59375 C 88.210938 6.785156 87.566406 6.222656 87.125 5.917969 L 88.332031 4.707031 C 88.933594 5.0625 89.617188 5.585938 90.394531 6.28125 C 91.167969 6.980469 91.808594 7.644531 92.324219 8.28125 Z M 92.324219 8.269531 "/>
<path style=" stroke:none;fill-rule:nonzero;fill:rgb(92.941176%,42.352941%,0%);fill-opacity:1;" d="M 101.972656 16.964844 L 100 16.964844 L 100 13.613281 L 96.886719 13.613281 L 96.886719 14.054688 L 94.914062 14.054688 L 94.914062 5.605469 L 100 5.605469 L 100 4.355469 L 101.972656 4.355469 L 101.972656 5.605469 L 107.089844 5.605469 L 107.089844 14.066406 L 105.128906 14.066406 L 105.128906 13.621094 L 101.972656 13.621094 L 101.972656 16.972656 Z M 100 7.140625 L 96.886719 7.140625 L 96.886719 8.828125 L 100 8.828125 Z M 100 10.28125 L 96.886719 10.28125 L 96.886719 12.046875 L 100 12.046875 Z M 105.117188 8.828125 L 105.117188 7.140625 L 101.960938 7.140625 L 101.960938 8.828125 Z M 105.117188 12.046875 L 105.117188 10.28125 L 101.960938 10.28125 L 101.960938 12.046875 Z M 105.117188 12.046875 "/>
<path style=" stroke:none;fill-rule:nonzero;fill:rgb(92.941176%,42.352941%,0%);fill-opacity:1;" d="M 122.648438 10.9375 C 122.054688 13.035156 121.230469 14.550781 120.175781 15.480469 C 119.121094 16.410156 117.773438 16.871094 116.113281 16.871094 C 115.402344 16.871094 114.777344 16.78125 114.234375 16.589844 C 113.691406 16.398438 113.257812 16.15625 112.917969 15.832031 C 112.578125 15.511719 112.316406 15.167969 112.132812 14.792969 C 111.953125 14.417969 111.832031 14.015625 111.773438 13.601562 C 111.710938 13.1875 111.691406 12.53125 111.691406 11.644531 C 111.691406 10.675781 111.792969 8.414062 111.984375 4.847656 L 114.035156 4.847656 C 113.84375 8.027344 113.753906 10.238281 113.753906 11.480469 C 113.753906 12.492188 113.78125 13.136719 113.832031 13.410156 C 113.882812 13.683594 114.003906 13.945312 114.183594 14.199219 C 114.367188 14.449219 114.636719 14.640625 114.976562 14.773438 C 115.320312 14.902344 115.742188 14.976562 116.246094 14.976562 C 117.351562 14.976562 118.273438 14.589844 119.019531 13.835938 C 119.761719 13.078125 120.347656 11.875 120.789062 10.230469 L 122.628906 10.925781 Z M 122.648438 10.9375 "/>
<path style=" stroke:none;fill-rule:nonzero;fill:rgb(92.941176%,42.352941%,0%);fill-opacity:1;" d="M 138.800781 15.15625 L 138.488281 16.722656 C 138.417969 16.722656 138.316406 16.722656 138.199219 16.722656 L 133.90625 16.761719 C 131.886719 16.761719 130.417969 16.660156 129.53125 16.46875 C 128.808594 16.226562 128.277344 15.863281 127.933594 15.378906 C 127.210938 16.066406 126.476562 16.601562 125.734375 16.972656 L 125.101562 15.328125 C 125.761719 15.074219 126.375 14.710938 126.929688 14.238281 L 126.929688 10.746094 L 125.441406 10.746094 L 125.441406 9.25 L 128.71875 9.25 L 128.71875 13.835938 C 128.71875 14.148438 128.839844 14.410156 129.101562 14.621094 C 129.351562 14.832031 129.652344 14.984375 130.015625 15.074219 C 130.367188 15.167969 130.789062 15.226562 131.273438 15.246094 C 131.753906 15.269531 132.597656 15.277344 133.824219 15.277344 C 136.386719 15.277344 138.054688 15.246094 138.820312 15.175781 Z M 129.039062 7.242188 L 127.3125 8.128906 C 127.191406 7.867188 126.910156 7.414062 126.46875 6.738281 C 126.035156 6.070312 125.703125 5.597656 125.480469 5.324219 L 127.039062 4.464844 C 127.644531 5.160156 128.308594 6.089844 129.039062 7.242188 Z M 133.855469 10.410156 C 133.171875 12.1875 131.886719 13.582031 130.027344 14.613281 L 129.058594 13.269531 C 130.207031 12.632812 131.101562 11.753906 131.753906 10.632812 C 132.40625 9.511719 132.769531 8.292969 132.839844 6.96875 C 132.808594 6.726562 132.789062 6.523438 132.789062 6.363281 L 130.175781 6.363281 L 130.175781 4.847656 L 134.78125 4.847656 L 134.78125 5.0625 C 134.78125 6.554688 134.828125 7.59375 134.941406 8.171875 C 135.050781 8.746094 135.273438 9.371094 135.613281 10.027344 C 135.957031 10.683594 136.359375 11.269531 136.832031 11.792969 C 137.300781 12.320312 137.875 12.804688 138.550781 13.269531 L 137.191406 14.761719 C 136.550781 14.308594 135.914062 13.683594 135.300781 12.894531 C 134.6875 12.109375 134.21875 11.28125 133.875 10.421875 Z M 133.855469 10.410156 "/>
<path style=" stroke:none;fill-rule:nonzero;fill:rgb(92.941176%,42.352941%,0%);fill-opacity:1;" d="M 154.429688 11.210938 L 153.859375 13.007812 L 152.300781 12.421875 C 151.726562 14.5 150.488281 16.054688 148.609375 17.085938 L 147.445312 15.832031 C 148.347656 15.195312 149.023438 14.570312 149.476562 13.933594 C 149.925781 13.300781 150.238281 12.582031 150.417969 11.773438 C 149.335938 11.429688 148.339844 11.210938 147.433594 11.089844 C 145.996094 14.429688 144.46875 16.105469 142.859375 16.105469 C 142.257812 16.105469 141.765625 15.882812 141.382812 15.449219 C 141 15.015625 140.8125 14.46875 140.8125 13.835938 C 140.8125 12.734375 141.28125 11.703125 142.238281 10.746094 C 143.191406 9.785156 144.410156 9.300781 145.898438 9.300781 L 146.007812 9.300781 C 146.199219 8.613281 146.347656 7.828125 146.46875 6.929688 L 142.429688 6.929688 L 142.429688 5.28125 L 148.347656 5.28125 L 148.621094 5.574219 C 148.558594 6.835938 148.347656 8.128906 147.996094 9.453125 C 148.800781 9.5625 149.695312 9.753906 150.679688 10.027344 C 150.703125 9.695312 150.710938 9.199219 150.710938 8.554688 C 150.710938 8.300781 150.710938 8.027344 150.710938 7.734375 L 152.710938 7.734375 L 152.710938 8.90625 C 152.722656 9.554688 152.710938 10.128906 152.660156 10.625 L 154.460938 11.21875 Z M 145.402344 10.96875 C 144.78125 11.015625 144.257812 11.21875 143.816406 11.574219 C 143.375 11.925781 143.070312 12.320312 142.890625 12.742188 C 142.710938 13.167969 142.628906 13.519531 142.628906 13.792969 C 142.628906 14.085938 142.71875 14.226562 142.890625 14.226562 C 143.65625 14.226562 144.488281 13.136719 145.402344 10.96875 Z M 145.402344 10.96875 "/>
</g>
</svg>

<svg xmlns="http://www.w3.org/2000/svg" width="140.556" height="17.308" viewBox="0 0 140.556 17.308">
  <g id="surface1" transform="translate(0.095 -2.339)">
    <path id="パス_1" data-name="パス 1" d="M8.133,9.254,10.746,2.52a.278.278,0,0,1,.363-.16l2.426.945a.287.287,0,0,1,.16.367L11.086,10.41a.287.287,0,0,1-.367.16L8.293,9.621A.286.286,0,0,1,8.133,9.254Zm0,0" fill="#3b241a"/>
    <path id="パス_2" data-name="パス 2" d="M7.43,11.109l2.953,1.148-2.34,2.426a.325.325,0,0,1-.445-.051.319.319,0,0,1-.059-.152Zm0,0" fill="#3b241a"/>
    <path id="パス_3" data-name="パス 3" d="M13.648,10.1l3.137,4.039a.93.93,0,0,1-.16,1.3.9.9,0,0,1-.25.145l-8.8,3.23A.927.927,0,0,1,6.5,18.474L.926,10.552a.931.931,0,0,1,.2-1.285,1.084,1.084,0,0,1,.23-.121l4.836-1.8" transform="translate(0 0.002)" fill="none" stroke="#3b241a" stroke-linecap="round" stroke-miterlimit="10" stroke-width="1.511"/>
    <path id="パス_4" data-name="パス 4" d="M34.84,7.848H30.445V6.5H34.84ZM34.566,16.3h-2.4v.516H30.7V12.148h3.871v4.16ZM34.535,5.879H30.879v-1.2h3.656Zm-.07,3.766H30.9V8.473h3.566Zm0,1.855H30.9V10.313h3.566Zm-1.355,3.574V13.359H32.2v1.715ZM43.3,14.582h-.562v.957a1.1,1.1,0,0,1-.41.859,1.419,1.419,0,0,1-.937.352H39.742l-.2-1.473h1.035c.25,0,.383-.109.383-.344v-.352h-3.57v2.25H35.563v-2.25h-.594V13.461h.594V10.168h2.793V9.605H35.008V8.523h1.621V7.867H35.5v-1h1.129V6.242H35.25V5.191h1.379V4.465H38.4v.727h1.527V4.465H41.7v.727h1.355V6.242H41.7v.625h1v1h-1v.656h1.516V9.605H39.945v.563h2.793v3.293H43.3Zm-4.914-3.4h-1v.664h1Zm-1,2.281h1v-.719h-1Zm1-7.219v.625h1.527V6.242Zm0,2.281h1.527V7.867H38.387Zm2.563,3.32V11.18H39.895v.664Zm-1.055,1.625h1.055v-.715H39.895Zm0,0" fill="#ed6c00"/>
    <path id="パス_5" data-name="パス 5" d="M51.3,8.352a8.843,8.843,0,0,1-1.637.7c-.863.3-1.6.535-2.2.68L47.051,8.4c.582-.133,1.3-.324,2.121-.586a17.4,17.4,0,0,0,1.891-.7ZM50.227,6.906,49.1,7.8,47.652,6.434l.574-.426h-1v-1.2H53.07v4.41a.984.984,0,0,1-.422.828,1.487,1.487,0,0,1-.934.3H50.207l-.23-1.383h1.137c.211,0,.309-.094.309-.285V6.008h-2.2l1,.891Zm6.605,9.2H49.914v.426H48.035V10.824h4.383c.25-.473.422-.828.523-1.059l1.75.273-.484.785H58.73v5.707h-1.9Zm0-3.25v-.789H49.914v.789Zm-6.918,1.926h6.918v-.816H49.914Zm7.7-6.418a9.446,9.446,0,0,1-1.637.7,21.6,21.6,0,0,1-2.2.676l-.4-1.32c.563-.121,1.266-.316,2.109-.578a14.936,14.936,0,0,0,1.9-.707l.242,1.234ZM56.551,6.906,55.422,7.8,53.977,6.434l.574-.426H53.473v-1.2h6V9.16a1.032,1.032,0,0,1-.4.859,1.512,1.512,0,0,1-.957.32H56.531L56.3,8.957h1.168c.211,0,.313-.09.313-.281V6H55.555l1,.887Zm0,0" fill="#ed6c00"/>
    <path id="パス_6" data-name="パス 6" d="M73.9,10.066H66.27V9.281a13.892,13.892,0,0,1-2.312,1.211L63.051,9.02a15.461,15.461,0,0,0,3.371-2A9.634,9.634,0,0,0,69,4.414h1.859A14.469,14.469,0,0,0,76.984,8.8l-1,1.625a15.3,15.3,0,0,1-2.094-1.059v.7Zm-.281,6.1c-2.172.242-5.258.461-9.227.664l-.293-1.7,1.789-.062c.484-.734.934-1.5,1.359-2.3h-3.32V11.117H76.141v1.656H73.3a24.652,24.652,0,0,1,2.855,3.414l-2.051.777A6.059,6.059,0,0,0,73.617,16.168Zm-6.152-7.7h5.1A13.771,13.771,0,0,1,70.008,6.1a13.625,13.625,0,0,1-2.551,2.363Zm.684,6.512c1.809-.1,3.246-.2,4.313-.293-.453-.559-.855-1.02-1.207-1.406l.914-.492H69.445c-.4.746-.836,1.484-1.3,2.191Zm0,0" fill="#ed6c00"/>
    <path id="パス_7" data-name="パス 7" d="M85.234,16.176,85.7,14.57a4.408,4.408,0,0,0,1.891.465,2.466,2.466,0,0,0,1.578-.473,1.635,1.635,0,0,0,.582-1.344,1.717,1.717,0,0,0-.836-1.547,4.3,4.3,0,0,0-2.312-.523,11.093,11.093,0,0,0-1.937.184v3.8A1.46,1.46,0,0,1,84,16.41a2.889,2.889,0,0,1-1.66.461,3.437,3.437,0,0,1-2.3-.8,2.534,2.534,0,0,1-.945-2.047,3.163,3.163,0,0,1,.957-2.242,6.739,6.739,0,0,1,2.613-1.605V8.441H79.426V6.816h3.238V4.625h2V6.816h3.348V8.441H84.664V9.676a12.023,12.023,0,0,1,1.918-.152,6.78,6.78,0,0,1,3.75.938,3.018,3.018,0,0,1,1.438,2.688,3.389,3.389,0,0,1-1.086,2.676A4.126,4.126,0,0,1,87.8,16.8a5.216,5.216,0,0,1-2.574-.633Zm-2.562-4.23c-1.184.566-1.77,1.242-1.77,2.031a1.028,1.028,0,0,0,.414.828,1.461,1.461,0,0,0,.953.332.351.351,0,0,0,.4-.395ZM92.324,8.27l-1.48,1.164a20.565,20.565,0,0,0-1.777-1.84,19.094,19.094,0,0,0-1.941-1.676l1.207-1.211a13.619,13.619,0,0,1,2.063,1.574,18.074,18.074,0,0,1,1.93,2Zm0,0" fill="#ed6c00"/>
    <path id="パス_8" data-name="パス 8" d="M101.973,16.965H100V13.613H96.887v.441H94.914V5.605H100V4.355h1.973v1.25h5.117v8.461h-1.961v-.445h-3.156v3.352ZM100,7.141H96.887V8.828H100Zm0,3.141H96.887v1.766H100Zm5.117-1.453V7.141h-3.156V8.828Zm0,3.219V10.281h-3.156v1.766Zm0,0" fill="#ed6c00"/>
    <path id="パス_10" data-name="パス 10" d="M138.8,15.156l-.312,1.566H138.2l-4.293.039a23.209,23.209,0,0,1-4.375-.293,3.079,3.079,0,0,1-1.6-1.09,9.217,9.217,0,0,1-2.2,1.594l-.633-1.645a6.287,6.287,0,0,0,1.828-1.09V10.746h-1.488V9.25h3.277v4.586a.961.961,0,0,0,.383.785,2.212,2.212,0,0,0,.914.453,5.857,5.857,0,0,0,1.258.172c.48.023,1.324.031,2.551.031q3.844,0,5-.1Zm-9.762-7.914-1.727.887a14.086,14.086,0,0,0-.844-1.391c-.434-.668-.766-1.141-.988-1.414l1.559-.859A23.381,23.381,0,0,1,129.039,7.242Zm4.816,3.168a8.1,8.1,0,0,1-3.828,4.2l-.969-1.344a6.967,6.967,0,0,0,2.7-2.637,8.021,8.021,0,0,0,1.086-3.664,5.017,5.017,0,0,1-.051-.605h-2.613V4.848h4.605v.215a19.246,19.246,0,0,0,.16,3.109,6.888,6.888,0,0,0,.672,1.855,8.484,8.484,0,0,0,1.219,1.766,9.408,9.408,0,0,0,1.719,1.477l-1.359,1.492a9.129,9.129,0,0,1-1.891-1.867,10.084,10.084,0,0,1-1.426-2.473Zm0,0" transform="translate(-15)" fill="#ed6c00"/>
    <path id="パス_11" data-name="パス 11" d="M154.43,11.211l-.57,1.8-1.559-.586a7.364,7.364,0,0,1-3.691,4.664l-1.164-1.254a8.393,8.393,0,0,0,2.031-1.9,5.891,5.891,0,0,0,.941-2.16,17.557,17.557,0,0,0-2.984-.684q-2.156,5.01-4.574,5.016a1.885,1.885,0,0,1-1.477-.656,2.363,2.363,0,0,1-.57-1.613,4.313,4.313,0,0,1,1.426-3.09A4.935,4.935,0,0,1,145.9,9.3h.109a17.754,17.754,0,0,0,.461-2.371H142.43V5.281h5.918l.273.293A18.725,18.725,0,0,1,148,9.453a20.394,20.394,0,0,1,2.684.574c.023-.332.031-.828.031-1.473v-.82h2V8.906a14.665,14.665,0,0,1-.051,1.719l1.8.594Zm-9.027-.242a2.79,2.79,0,0,0-1.586.605,3.014,3.014,0,0,0-.926,1.168,2.819,2.819,0,0,0-.262,1.051c0,.293.09.434.262.434C143.656,14.227,144.488,13.137,145.4,10.969Zm0,0" transform="translate(-14)" fill="#ed6c00"/>
  </g>
</svg>
